X: 41410
T: Twilight In Portroe
R: reel
M: 4/4
K: Amajor
|A,2CE DEFD|EFGB ABcA|dfaf edcA|B2cB BAFE|
A,2CE DEFD|EFGB ABcA|dfaf edcA|1 BcAB cAAE:|2 BcAB cfed||
cAeA fAec|ABcA BcAF|E2EF ABcA|defg afed|
c2ec fcec|ABcA B2AF|E2EF ABcA|1 dfed cfed:|2 dfed cAFE||

